X:300
T:Green Grow the Rashes O!
R:Reel
B:The Athole Collection
M:C|
L:1/8
K:C
D|G2 BA BGGB|A/A/A ed eAAB|c2 ce dBGB|A/B/c BA GEE:|
A|G/G/G gf gddg|eaa^g aeef|gage dcBG|A/B/c BA GEEA|
Gggf gddg|eaa^g aeef|gbeg dgBG|A/B/c BA GEE||

